X:180
T: Gallant Tipperary Boys (b)
S: "Johnny O'Leary of Sliabh Luachra" (#129)
Z: B.Black
L: 1/8
M: 12/8
R: slide
Q: 360
K: D
d3 DFA B2A ABc|d2f ede f2a def|
gfg faf g2e d2B|BAB DFA B2A ABc :|
aga fdf gfg efg|aga fef e2A A2g|
agf g2f e/f/ge d2B|BAB DFA B2A A3 :|
